demos/printerdemo/ui/images/mcu/ink.svg

<svg fill="none" height="20" viewBox="0 0 18 18" width="20" xmlns="http://www.w3.org/2000/svg"><path d="m9 16.5c1.3924 0 2.7277-.5531 3.7123-1.5377s1.5377-2.3199 1.5377-3.7123c0-1.5-.75-2.925-2.25-4.125s-2.625-3-3-4.875c-.375 1.875-1.5 3.675-3 4.875s-2.25 2.625-2.25 4.125c0 1.3924.55312 2.7277 1.53769 3.7123s2.31992 1.5377 3.71231 1.5377z" stroke="#45556c" stroke-linecap="round" stroke-linejoin="round" stroke-width="1.5"/></svg>

<svg width="20" height="20" viewBox="0 0 18 18" fill="none" xmlns="http://www.w3.org/2000/svg">
<path d="M9 16.5C10.3924 16.5 11.7277 15.9469 12.7123 14.9623C13.6969 13.9777 14.25 12.6424 14.25 11.25C14.25 9.75 13.5 8.325 12 7.125C10.5 5.925 9.375 4.125 9 2.25C8.625 4.125 7.5 5.925 6 7.125C4.5 8.325 3.75 9.75 3.75 11.25C3.75 12.6424 4.30312 13.9777 5.28769 14.9623C6.27226 15.9469 7.60761 16.5 9 16.5Z" stroke="#45556C" stroke-width="1.5" stroke-linecap="round" stroke-linejoin="round"/>
</svg>
